!!!!SEGMENT: pl-lzu--m-15111--001-044_noskowski-zygmunt--spiewnik-dla-dzieci-op-34-44-skowronek.krn
!!!cenid: 18xx:4741
!!!COM: Noskowski, Zygmunt
!!!COM-rismID: pe106604
!!!CDT: 1846/05/02-1909/07/23
!!!CNT: Polish
!!!GTL: Śpiewnik dla dzieci, op. 34
!!!OTL: 44. Skowronek
!!!OMV: 044
!!!PDT: 1890
!!!AGN: Secular; Song; Children
!!!YEC: Copyright 2022 Narodowy Instytut Fryderyka Chopina (https://polishscores.org)
!!!YEM: License CC-BY-4.0 (https://creativecommons.org/licenses/by/4.0)
!!!SMS-siglum: PL-LŹu
!!!SMS-shelfmark: M 15111
!!!SMS-variant:
!!!SMS-altvar:
!!!SMS-shelfwork: 001-044 G
!!!NIFC-rismSourceID: 1001234040
!!!NIFC-rismChildID: 1001234040
!!!NIFC-islandoraID: pl-lzu:5455
!!!URL-pdf-islandora: https://repozytorium.nifc.pl/islandora/object/pl-lzu%3A5455/datastream/PDF/view
!!!URL-scan: https://polish.musicsources.pl/pl/lokalizacje/galeria/druki-muzyczne/23228/53 @EN{Scan on Polish Music Sources Website} @PL{Skany w portalu Dziedzictwo Muzyki Polskiej w otwartym dostępie}
!!!IIIF:
!!!ONB-nifc:
!!!AIN: 1 piano 1 vox
!!!key: F
!!!OMD: Moderato.
**kern	**kern	**dynam	**kern	**text	**dynam
*part2	*part2	*part2	*part1	*part1	*part1
*staff3	*staff2	*staff2,3	*staff1	*staff1	*staff1
*I"[Piano]	*I"[Piano]	*	*I"[Voice]	*	*
*I'pf	*I'pf	*	*I'V	*	*
*Ipiano	*Ipiano	*	*Ivox	*	*
*ICklav	*ICklav	*	*ICvox	*	*
*IGacomp	*IGacomp	*	*IGsolo	*	*
*clefF4	*clefG2	*	*clefG2	*	*
*k[b-]	*k[b-]	*	*k[b-]	*	*
*F:	*F:	*	*F:	*	*
*M3/4	*M3/4	*	*M3/4	*	*
*	*8va	*	*	*	*
=1	=1	=1	=1	=1	=1
*clefG2	*Xtuplet	*	*	*	*
!	!LO:TX:a:i:t=Umiarkowanie.	!LO:DY:c:t=pp e legato	!	!	!
[2.a [2.f/	24dddd\LL	pp	2.r	.	.
.	24aaa\	.	.	.	.
.	24fff\	.	.	.	.
.	24ddd\	.	.	.	.
.	24fff\	.	.	.	.
.	24aaa\JJ	.	.	.	.
.	24cccc\LL	.	.	.	.
.	24aaa\	.	.	.	.
.	24fff\	.	.	.	.
.	24ccc\	.	.	.	.
.	24fff\	.	.	.	.
.	24aaa\JJ	.	.	.	.
.	24dddd\LL	.	.	.	.
.	24aaa\	.	.	.	.
.	24fff\	.	.	.	.
.	24ddd\	.	.	.	.
.	24fff\	.	.	.	.
.	24aaa\JJ	.	.	.	.
=2	=2	=2	=2	=2	=2
2.a] 2.f/]	24cccc\LL	.	2.r	.	.
.	24aaa\	.	.	.	.
.	24fff\	.	.	.	.
.	24ccc\	.	.	.	.
.	24fff\	.	.	.	.
.	24aaa\JJ	.	.	.	.
.	24dddd\LL	.	.	.	.
.	24aaa\	.	.	.	.
.	24fff\	.	.	.	.
.	24ddd\	.	.	.	.
.	24fff\	.	.	.	.
.	24aaa\JJ	.	.	.	.
.	24cccc\LL	.	.	.	.
.	24aaa\	.	.	.	.
.	24fff\	.	.	.	.
.	24ccc\	.	.	.	.
.	24fff\	.	.	.	.
.	24aaa\JJ	.	.	.	.
!!LO:LB:g=original
=3	=3	=3	=3	=3	=3
*^	*	*	*	*	*
(4.a/	2.f\	24dddd\LL	.	4.a/	Sko-	p
.	.	24aaa\	.	.	.	.
.	.	24fff\	.	.	.	.
.	.	24ddd\	.	.	.	.
.	.	24fff\	.	.	.	.
.	.	24aaa\JJ	.	.	.	.
.	.	24cccc\LL	.	.	.	.
.	.	24aaa\	.	.	.	.
.	.	24fff\	.	.	.	.
8b-/L	.	24ccc\	.	8b-/	-wro-	.
.	.	24fff\	.	.	.	.
.	.	24aaa\JJ	.	.	.	.
8g/	.	24cccc\LL	.	8g/	-ne-	.
.	.	24ggg\	.	.	.	.
.	.	24eee\	.	.	.	.
8cc/J)	.	24ccc\	.	8cc\	-czek	.
.	.	24eee\	.	.	.	.
.	.	24ggg\JJ	.	.	.	.
=4	=4	=4	=4	=4	=4	=4
(8a/L	2.f\	24cccc\LL	.	(8a/L	śpie-	.
.	.	24aaa\	.	.	.	.
.	.	24fff\	.	.	.	.
8b-/J	.	24ccc\	.	8b-/J)	.	.
.	.	24fff\	.	.	.	.
.	.	24aaa\JJ	.	.	.	.
4g/	.	24cccc\LL	.	4g,/	-wa	.
.	.	24ggg\	.	.	.	.
.	.	24eee\	.	.	.	.
.	.	24ccc\	.	.	.	.
.	.	24eee\	.	.	.	.
.	.	24ggg\JJ	.	.	.	.
4cc/)	.	24cccc\LL	.	4cc\	Nad	.
.	.	24ggg\	.	.	.	.
.	.	24eee\	.	.	.	.
.	.	24ccc\	.	.	.	.
.	.	24eee\	.	.	.	.
.	.	24ggg\JJ	.	.	.	.
!!LO:PB:g=original
=5	=5	=5	=5	=5	=5	=5
(4f/	2.f\	24cccc\LL	.	4f/	tą	.
.	.	24aaa\	.	.	.	.
.	.	24fff\	.	.	.	.
.	.	24ccc\	.	.	.	.
.	.	24fff\	.	.	.	.
.	.	24aaa\JJ	.	.	.	.
4a/	.	24cccc\LL	.	4a/	ci-	.
.	.	24aaa\	.	.	.	.
.	.	24fff\	.	.	.	.
.	.	24ccc\	.	.	.	.
.	.	24fff\	.	.	.	.
.	.	24aaa\JJ	.	.	.	.
4cc/)	.	24cccc\LL	.	4cc\	-chą	.
.	.	24aaa\	.	.	.	.
.	.	24fff\	.	.	.	.
.	.	24ccc\	.	.	.	.
.	.	24fff\	.	.	.	.
.	.	24aaa\JJ	.	.	.	.
=6	=6	=6	=6	=6	=6	=6
(8dd/L	2f\	24dddd\LL	.	(8dd\L	ni-	.
.	.	24aaa\	.	.	.	.
.	.	24fff\	.	.	.	.
8cc/J	.	24ddd\	.	8cc\J)	.	.
.	.	24fff\	.	.	.	.
.	.	24aaa\JJ	.	.	.	.
4b-/)	.	24dddd\LL	.	4b-\	-wą,	.
.	.	24bbb-\	.	.	.	.
.	.	24fff\	.	.	.	.
.	.	24ddd\	.	.	.	.
.	.	24fff\	.	.	.	.
.	.	24bbb-\JJ	.	.	.	.
4r	4ryy	24dddd\LL	.	4r	.	.
.	.	24bbb-\	.	.	.	.
.	.	24fff\	.	.	.	.
.	.	24ddd\	.	.	.	.
.	.	24fff\	.	.	.	.
.	.	24bbb-\JJ	.	.	.	.
!!LO:LB:g=original
=7	=7	=7	=7	=7	=7	=7
(>4g/	2ryy	24cccc\LL	.	4.g/	Orz-	.
.	.	24bbb-\	.	.	.	.
.	.	24eee\	.	.	.	.
.	.	24ccc\	.	.	.	.
.	.	24eee\	.	.	.	.
.	.	24bbb-\JJ	.	.	.	.
8c/L	.	24cccc\LL	.	.	.	.
.	.	24bbb-\	.	.	.	.
.	.	24eee\	.	.	.	.
8b-/J	.	24ccc\	.	8b-/	-cie,	.
.	.	24eee\	.	.	.	.
.	.	24bbb-\JJ	.	.	.	.
8a/L	4f\	24cccc\LL	.	8a/	woł-	.
.	.	24aaa\	.	.	.	.
.	.	24fff\	.	.	.	.
8cc/J)	.	24ccc\	.	8cc\	-ki	.
.	.	24fff\	.	.	.	.
.	.	24aaa\JJ	.	.	.	.
*v	*v	*	*	*	*	*
=8	=8	=8	=8	=8	=8
(>4g/	24cccc\LL	.	(4.g/	si-	.
.	24bbb-\	.	.	.	.
.	24eee\	.	.	.	.
.	24ccc\	.	.	.	.
.	24eee\	.	.	.	.
.	24bbb-\JJ	.	.	.	.
8c/L	24cccc\LL	.	.	.	.
.	24bbb-\	.	.	.	.
.	24eee\	.	.	.	.
8a/J	24ccc\	.	8a/)	.	.
.	24eee\	.	.	.	.
.	24ggg\JJ	.	.	.	.
8fL 8A/	24cccc\LL	.	(8f/L	-we,	.
.	24aaa\	.	.	.	.
.	24fff\	.	.	.	.
8cc/J)	24ccc\	.	8cc,/J)	.	.
.	24fff\	.	.	.	.
.	24aaa\JJ	.	.	.	.
!!LO:LB:g=original
=9	=9	=9	=9	=9	=9
(>4.d 4.G/	24dddd\LL	.	4.d/	Pro-	.
.	24bbb-\	.	.	.	.
.	24fff\	.	.	.	.
.	24ddd\	.	.	.	.
.	24fff\	.	.	.	.
.	24bbb-\JJ	.	.	.	.
.	24dddd\LL	.	.	.	.
.	24bbb-\	.	.	.	.
.	24fff\	.	.	.	.
8f/	24ddd\	.	8f/	-sto	.
.	24fff\	.	.	.	.
.	24bbb-\JJ	.	.	.	.
8eL 8c/	24cccc\LL	.	8e/	a	.
.	24bbb-\	.	.	.	.
.	24eee\	.	.	.	.
8b-/J)	24ccc\	.	8b-\	nie	.
.	24eee\	.	.	.	.
.	24bbb-\JJ	.	.	.	.
=10	=10	=10	=10	=10	=10
(>8aL 8f/	24cccc\LL	.	(8a/L	krzy-	.
.	24aaa\	.	.	.	.
.	24fff\	.	.	.	.
8g/J	24ccc\	.	8g/J)	.	.
.	24fff\	.	.	.	.
.	24aaa\JJ	.	.	.	.
4f/)	24cccc\LL	.	4f/	-wo.	.
.	24aaa\	.	.	.	.
.	24fff\	.	.	.	.
.	24ccc\	.	.	.	.
.	24fff\	.	.	.	.
.	24aaa\JJ	.	.	.	.
4r	24cccc\LL	.	4r	.	.
.	24aaa\	.	.	.	.
.	24fff\	.	.	.	.
.	24ccc\	.	.	.	.
.	24fff\	.	.	.	.
.	24aaa\JJ	.	.	.	.
!!LO:PB:g=original
=11	=11	=11	=11	=11	=11
*^	*	*	*	*	*
(4.g/	2.c\	24cccc\LL	.	4.g/	Orz-	.
.	.	24ggg\	.	.	.	.
.	.	24eee\	.	.	.	.
.	.	24ccc\	.	.	.	.
.	.	24eee\	.	.	.	.
.	.	24ggg\JJ	.	.	.	.
.	.	24cccc\LL	.	.	.	.
.	.	24ggg\	.	.	.	.
.	.	24eee\	.	.	.	.
8bn/L	.	24ccc\	.	8bn\	-cie	.
.	.	24eee\	.	.	.	.
.	.	24ggg\JJ	.	.	.	.
8cc/	.	24cccc\LL	.	8cc\	woł-	.
.	.	24ggg\	.	.	.	.
.	.	24eee\	.	.	.	.
8g/J)	.	24ccc\	.	8g/	-ki	.
.	.	24eee\	.	.	.	.
.	.	24ggg\JJ	.	.	.	.
=12	=12	=12	=12	=12	=12	=12
(2bn/	2.c\	24dddd\LL	.	2bn/	si-	.
.	.	24ggg\	.	.	.	.
.	.	24fff\	.	.	.	.
.	.	24ddd\	.	.	.	.
.	.	24fff\	.	.	.	.
.	.	24ggg\JJ	.	.	.	.
.	.	24dddd\LL	.	.	.	.
.	.	24ggg\	.	.	.	.
.	.	24fff\	.	.	.	.
.	.	24ddd\	.	.	.	.
.	.	24fff\	.	.	.	.
.	.	24ggg\JJ	.	.	.	.
4g/)	.	24dddd\LL	.	4g,/	-we,	.
.	.	24ggg\	.	.	.	.
.	.	24fff\	.	.	.	.
.	.	24ddd\	.	.	.	.
.	.	24fff\	.	.	.	.
.	.	24ggg\JJ	.	.	.	.
!!LO:LB:g=original
=13	=13	=13	=13	=13	=13	=13
(4.g/	2.c\	24eeee\LL	.	4.g/	Na	.
.	.	24cccc\	.	.	.	.
.	.	24ggg\	.	.	.	.
.	.	24eee\	.	.	.	.
.	.	24ggg\	.	.	.	.
.	.	24cccc\JJ	.	.	.	.
.	.	24eeee\LL	.	.	.	.
.	.	24cccc\	.	.	.	.
.	.	24ggg\	.	.	.	.
8cc/L	.	24eee\	.	8cc\	ten	.
.	.	24ggg\	.	.	.	.
.	.	24cccc\JJ	.	.	.	.
8dd/	.	24dddd\LL	.	8dd\	chleb	.
.	.	24aaa\	.	.	.	.
.	.	24fff#X\	.	.	.	.
8a/J)	.	24ddd\	.	8a/	ra-	.
.	.	24fff#\	.	.	.	.
.	.	24aaa\JJ	.	.	.	.
=14	=14	=14	=14	=14	=14	=14
(2bn/	2.c\	24dddd\LL	.	2bn\	-zo-	.
.	.	24ggg\	.	.	.	.
.	.	24fffn\	.	.	.	.
.	.	24ddd\	.	.	.	.
.	.	24fff\	.	.	.	.
.	.	24ggg\JJ	.	.	.	.
.	.	24dddd\LL	.	.	.	.
.	.	24ggg\	.	.	.	.
.	.	24fff\	.	.	.	.
.	.	24ddd\	.	.	.	.
.	.	24fff\	.	.	.	.
.	.	24ggg\JJ	.	.	.	.
4cc/)	.	24cccc\LL	.	4cc,\	-wy,	.
.	.	24ggg\	.	.	.	.
.	.	24eee\	.	.	.	.
.	.	24ccc\	.	.	.	.
.	.	24eee\	.	.	.	.
.	.	24ggg\JJ	.	.	.	.
!!LO:LB:g=original
=15	=15	=15	=15	=15	=15	=15
(4.ee/	2.a\	24cccc\LL	.	4.ee\	Na	.
.	.	24aaa\	.	.	.	.
.	.	24eee\	.	.	.	.
.	.	24ccc\	.	.	.	.
.	.	24eee\	.	.	.	.
.	.	24aaa\JJ	.	.	.	.
.	.	24cccc\LL	.	.	.	.
.	.	24aaa\	.	.	.	.
.	.	24eee\	.	.	.	.
8dd/L	.	24ccc\	.	8dd\	ten	.
.	.	24eee\	.	.	.	.
.	.	24aaa\JJ	.	.	.	.
8cc/	.	24cccc\LL	.	8cc\	chle-	.
.	.	24aaa\	.	.	.	.
.	.	24eee\	.	.	.	.
8dd/J)	.	24ccc\	.	8dd\	-bek	.
.	.	24eee\	.	.	.	.
.	.	24aaa\JJ	.	.	.	.
*v	*v	*	*	*	*	*
=16	=16	=16	=16	=16	=16
(>8a/L	24dddd\LL	.	(8a/L	ży-	.
.	24aaa\	.	.	.	.
.	24fff\	.	.	.	.
8bn/J	24ddd\	.	8bn/J)	.	.
.	24fff\	.	.	.	.
.	24aaa\JJ	.	.	.	.
4cc 4a/)	24cccc\LL	.	4cc\	-tni,	.
.	24aaa\	.	.	.	.
.	24eee\	.	.	.	.
.	24ccc\	.	.	.	.
.	24eee\	.	.	.	.
.	24aaa\JJ	.	.	.	.
4r	24cccc\LL	.	4r	.	.
.	24aaa\	.	.	.	.
.	24eee\	.	.	.	.
.	24ccc\	.	.	.	.
.	24eee\	.	.	.	.
.	24aaa\JJ	.	.	.	.
!!LO:PB:g=original
=17	=17	=17	=17	=17	=17
*^	*	*	*	*	*
(4.dd/	2.d\	24bbbn\LL	.	4.dd\	Czar-	.
.	.	24aaa\	.	.	.	.
.	.	24fff\	.	.	.	.
.	.	24bbn\	.	.	.	.
.	.	24fff\	.	.	.	.
.	.	24aaa\JJ	.	.	.	.
.	.	24bbb\LL	.	.	.	.
.	.	24aaa\	.	.	.	.
.	.	24fff\	.	.	.	.
8bn/L	.	24bb\	.	8bn\	-ny,	.
.	.	24fff\	.	.	.	.
.	.	24aaa\JJ	.	.	.	.
8a/	.	24bbb\LL	.	8a/	a-	.
.	.	24aaa\	.	.	.	.
.	.	24fff\	.	.	.	.
8b/J)	.	24bb\	.	8b/	-le	.
.	.	24fff\	.	.	.	.
.	.	24aaa\JJ	.	.	.	.
*v	*v	*	*	*	*	*
=18	=18	=18	=18	=18	=18
(>8e/L	24bbbn\LL	.	(8e/L	zdro-	.
.	24eee\	.	.	.	.
.	24ddd\	.	.	.	.
8g#X/J	24bbn\	.	8g#X/J)	.	.
.	24ddd\	.	.	.	.
.	24eee\JJ	.	.	.	.
4a/)	24aaa\LL	.	4a/	-wy.	.
.	24eee\	.	.	.	.
.	24ccc\	.	.	.	.
.	24aa\	.	.	.	.
.	24ccc\	.	.	.	.
.	24eee\JJ	.	.	.	.
4r	24aaa\LL	.	4r	.	.
.	24eee\	.	.	.	.
.	24ccc\	.	.	.	.
.	24aa\	.	.	.	.
.	24ccc\	.	.	.	.
.	24eee\JJ	.	.	.	.
!!LO:LB:g=original
=19	=19	=19	=19	=19	=19
(4g 4c/	24ggg\LL	.	2.r	.	.
.	24eee\	.	.	.	.
.	24ccc\	.	.	.	.
.	24gg\	.	.	.	.
.	24ccc\	.	.	.	.
.	24eee\JJ	.	.	.	.
4g#X/	24ggg#X\LL	<	.	.	.
.	24eee\	.	.	.	.
.	24ccc\	.	.	.	.
.	24gg#X\	.	.	.	.
.	24ccc\	.	.	.	.
.	24eee\JJ	.	.	.	.
4a/	24aaa\LL	.	.	.	.
.	24eee\	.	.	.	.
.	24ccc\	.	.	.	.
.	24aa\	.	.	.	.
.	24ccc\	.	.	.	.
.	24eee\JJ	[	.	.	.
=20	=20	=20	=20	=20	=20
4b-X\	24bbb-X\LL	.	2.r	.	.
.	24gggn\	.	.	.	.
.	24eee\	.	.	.	.
.	24bb-\	.	.	.	.
.	24eee\	.	.	.	.
.	24ggg\JJ	.	.	.	.
4bn\	24bbbn\LL	>	.	.	.
.	24ggg\	.	.	.	.
.	24eee\	.	.	.	.
.	24bbn\	.	.	.	.
.	24eee\	.	.	.	.
.	24ggg\JJ	.	.	.	.
4cc\)	24cccc\LL	.	.	.	.
.	24ggg\	.	.	.	.
.	24eee\	.	.	.	.
.	24ccc\	.	.	.	.
.	24eee\	.	.	.	.
.	24ggg\JJ	]	.	.	.
!!LO:LB:g=original
=21	=21	=21	=21	=21	=21
*^	*	*	*	*	*
(4.a/	2.f\	24cccc\LL	.	4.a/	Sko-	.
.	.	24aaa\	.	.	.	.
.	.	24fff\	.	.	.	.
.	.	24ccc\	.	.	.	.
.	.	24fff\	.	.	.	.
.	.	24aaa\JJ	.	.	.	.
.	.	24cccc\LL	.	.	.	.
.	.	24aaa\	.	.	.	.
.	.	24fff\	.	.	.	.
8b-X/L	.	24ccc\	.	8b-/	-wro-	.
.	.	24fff\	.	.	.	.
.	.	24aaa\JJ	.	.	.	.
8g/	.	24cccc\LL	.	8g/	-ne-	.
.	.	24ggg\	.	.	.	.
.	.	24eee\	.	.	.	.
8a/J)	.	24ccc\	.	8cc\	-czek	.
.	.	24eee\	.	.	.	.
.	.	24ggg\JJ	.	.	.	.
=22	=22	=22	=22	=22	=22	=22
(8a/L	2.f\	24cccc\LL	.	(8a/L	śpie-	.
.	.	24aaa\	.	.	.	.
.	.	24fff\	.	.	.	.
8b-/J	.	24ccc\	.	8b-/J)	.	.
.	.	24fff\	.	.	.	.
.	.	24aaa\JJ	.	.	.	.
4g/	.	24cccc\LL	.	4g,/	-wa	.
.	.	24ggg\	.	.	.	.
.	.	24eee\	.	.	.	.
.	.	24ccc\	.	.	.	.
.	.	24eee\	.	.	.	.
.	.	24ggg\JJ	.	.	.	.
4cc/)	.	24cccc\LL	.	4cc\	Wi-	.
.	.	24ggg\	.	.	.	.
.	.	24eee\	.	.	.	.
.	.	24ccc\	.	.	.	.
.	.	24eee\	.	.	.	.
.	.	24ggg\JJ	.	.	.	.
!!LO:PB:g=original
=23	=23	=23	=23	=23	=23	=23
(4f/	2.f\	24cccc\LL	.	4f/	-szą-	.
.	.	24aaa\	.	.	.	.
.	.	24fff\	.	.	.	.
.	.	24ccc\	.	.	.	.
.	.	24fff\	.	.	.	.
.	.	24aaa\JJ	.	.	.	.
4a/	.	24cccc\LL	.	4a/	-cy	.
.	.	24aaa\	.	.	.	.
.	.	24fff\	.	.	.	.
.	.	24ccc\	.	.	.	.
.	.	24fff\	.	.	.	.
.	.	24aaa\JJ	.	.	.	.
4cc/)	.	24cccc\LL	.	4cc\	pod	.
.	.	24aaa\	.	.	.	.
.	.	24fff\	.	.	.	.
.	.	24ccc\	.	.	.	.
.	.	24fff\	.	.	.	.
.	.	24aaa\JJ	.	.	.	.
=24	=24	=24	=24	=24	=24	=24
(8dd/L	2f\	24dddd\LL	.	(8dd\L	nie-	.
.	.	24aaa\	.	.	.	.
.	.	24fff\	.	.	.	.
8cc/J	.	24ddd\	.	8cc\J)	.	.
.	.	24fff\	.	.	.	.
.	.	24aaa\JJ	.	.	.	.
4b-/)	.	24dddd\LL	.	4b-\	-bem,	.
.	.	24bbb-\	.	.	.	.
.	.	24fff\	.	.	.	.
.	.	24ddd\	.	.	.	.
.	.	24fff\	.	.	.	.
.	.	24bbb-\JJ	.	.	.	.
4r	4r	24dddd\LL	.	4r	.	.
.	.	24bbb-\	.	.	.	.
.	.	24fff\	.	.	.	.
.	.	24ddd\	.	.	.	.
.	.	24fff\	.	.	.	.
.	.	24bbb-\JJ	.	.	.	.
!!LO:LB:g=original
=25	=25	=25	=25	=25	=25	=25
(>4g/	2ryy	24cccc\LL	.	4.g/	Daj	.
.	.	24bbb-\	.	.	.	.
.	.	24eee\	.	.	.	.
.	.	24ccc\	.	.	.	.
.	.	24eee\	.	.	.	.
.	.	24bbb-\JJ	.	.	.	.
8c/L	.	24cccc\LL	.	.	.	.
.	.	24bbb-\	.	.	.	.
.	.	24eee\	.	.	.	.
8b-/J	.	24ccc\	.	8b-/	nam	.
.	.	24eee\	.	.	.	.
.	.	24bbb-\JJ	.	.	.	.
8a/L	4f\	24cccc\LL	.	8a/	Bo-	.
.	.	24aaa\	.	.	.	.
.	.	24fff\	.	.	.	.
8cc/J)	.	24ccc\	.	8cc\	-że	.
.	.	24fff\	.	.	.	.
.	.	24aaa\JJ	.	.	.	.
*v	*v	*	*	*	*	*
=26	=26	=26	=26	=26	=26
(<8g/L	24cccc\LL	.	(8g/L	ra-	.
.	24bbb-\	.	.	.	.
.	24eee\	.	.	.	.
8a/J	24ccc\	.	8a/J)	.	.
.	24eee\	.	.	.	.
.	24bbb-\JJ	.	.	.	.
4f/	24cccc\LL	.	4f/	-zem	.
.	24aaa\	.	.	.	.
.	24fff\	.	.	.	.
.	24ccc\	.	.	.	.
.	24fff\	.	.	.	.
.	24bbb-\JJ	.	.	.	.
4cc\)	24cccc\LL	.	4cc\	Prze-	.
.	24aaa\	.	.	.	.
.	24fff\	.	.	.	.
.	24ccc\	.	.	.	.
.	24fff\	.	.	.	.
.	24aaa\JJ	.	.	.	.
!!LO:LB:g=original
=27	=27	=27	=27	=27	=27
(>4.d 4.G/	24dddd\LL	.	(4.d/	-ła-	.
.	24bbb-\	.	.	.	.
.	24fff\	.	.	.	.
.	24ddd\	.	.	.	.
.	24fff\	.	.	.	.
.	24bbb-\JJ	.	.	.	.
.	24dddd\LL	.	.	.	.
.	24bbb-\	.	.	.	.
.	24fff\	.	.	.	.
8f/	24ddd\	.	8f/)	.	.
.	24fff\	.	.	.	.
.	24bbb-\JJ	.	.	.	.
8eL 8c/	24cccc\LL	.	8e/	-mać	.
.	24bbb-\	.	.	.	.
.	24eee\	.	.	.	.
8b-/J)	24ccc\	.	8b-\	się	.
.	24eee\	.	.	.	.
.	24bbb-\JJ	.	.	.	.
=28	=28	=28	=28	=28	=28
(>8aL 8f/	24cccc\LL	.	(8a/L	chle-	.
.	24aaa\	.	.	.	.
.	24fff\	.	.	.	.
8g/J	24ccc\	.	8g/J)	.	.
.	24fff\	.	.	.	.
.	24aaa\JJ	.	.	.	.
4f/)	24cccc\LL	.	4f/	-bem.	.
.	24aaa\	.	.	.	.
.	24fff\	.	.	.	.
.	24ccc\	.	.	.	.
.	24fff\	.	.	.	.
.	24aaa\JJ	.	.	.	.
4r	24cccc\LL	.	4r	.	.
.	24aaa\	.	.	.	.
.	24fff\	.	.	.	.
.	24ccc\	.	.	.	.
.	24fff\	.	.	.	.
.	24aaa\JJ	.	.	.	.
!!LO:PB:g=original
=29	=29	=29	=29	=29	=29
*^	*	*	*	*	*
(4.g/	2.c\	24cccc\LL	.	4.g/	Chle-	.
.	.	24ggg\	.	.	.	.
.	.	24eee\	.	.	.	.
.	.	24ccc\	.	.	.	.
.	.	24eee\	.	.	.	.
.	.	24ggg\JJ	.	.	.	.
.	.	24cccc\LL	.	.	.	.
.	.	24ggg\	.	.	.	.
.	.	24eee\	.	.	.	.
8bn/L	.	24ccc\	.	8bn/	-bem	.
.	.	24eee\	.	.	.	.
.	.	24ggg\JJ	.	.	.	.
8cc/	.	24cccc\LL	.	8cc\	się	.
.	.	24ggg\	.	.	.	.
.	.	24eee\	.	.	.	.
8g/J)	.	24ccc\	.	8g/	prze-	.
.	.	24eee\	.	.	.	.
.	.	24ggg\JJ	.	.	.	.
=30	=30	=30	=30	=30	=30	=30
(2bn/	2.c\	24dddd\LL	.	2bn/	-ła-	.
.	.	24ggg\	.	.	.	.
.	.	24fff\	.	.	.	.
.	.	24ddd\	.	.	.	.
.	.	24fff\	.	.	.	.
.	.	24ggg\JJ	.	.	.	.
.	.	24dddd\LL	.	.	.	.
.	.	24ggg\	.	.	.	.
.	.	24fff\	.	.	.	.
.	.	24ddd\	.	.	.	.
.	.	24fff\	.	.	.	.
.	.	24ggg\JJ	.	.	.	.
4g/)	.	24dddd\LL	.	4g/	-mać,	.
.	.	24ggg\	.	.	.	.
.	.	24fff\	.	.	.	.
.	.	24ddd\	.	.	.	.
.	.	24fff\	.	.	.	.
.	.	24ggg\JJ	.	.	.	.
!!LO:LB:g=original
=31	=31	=31	=31	=31	=31	=31
(4.g/	2.c\	24eeee\LL	.	4.g/	Ką-	.
.	.	24cccc\	.	.	.	.
.	.	24ggg\	.	.	.	.
.	.	24eee\	.	.	.	.
.	.	24ggg\	.	.	.	.
.	.	24cccc\JJ	.	.	.	.
.	.	24eeee\LL	.	.	.	.
.	.	24cccc\	.	.	.	.
.	.	24ggg\	.	.	.	.
8cc/L	.	24eee\	.	8cc\	-skiem	.
.	.	24ggg\	.	.	.	.
.	.	24cccc\JJ	.	.	.	.
8dd/	.	24dddd\LL	.	8dd\	choć	.
.	.	24aaa\	.	.	.	.
.	.	24fff#X\	.	.	.	.
8a/J)	.	24ddd\	.	8a/	o-	.
.	.	24fff#\	.	.	.	.
.	.	24aaa\JJ	.	.	.	.
=32	=32	=32	=32	=32	=32	=32
(2bn/	2.c\	24dddd\LL	.	2bn\	-sta-	.
.	.	24ggg\	.	.	.	.
.	.	24fffn\	.	.	.	.
.	.	24ddd\	.	.	.	.
.	.	24fff\	.	.	.	.
.	.	24ggg\JJ	.	.	.	.
.	.	24dddd\LL	.	.	.	.
.	.	24ggg\	.	.	.	.
.	.	24fff\	.	.	.	.
.	.	24ddd\	.	.	.	.
.	.	24fff\	.	.	.	.
.	.	24ggg\JJ	.	.	.	.
4cc/)	.	24cccc\LL	.	4cc,\	-tnim,	.
.	.	24ggg\	.	.	.	.
.	.	24eee\	.	.	.	.
.	.	24ccc\	.	.	.	.
.	.	24eee\	.	.	.	.
.	.	24ggg\JJ	.	.	.	.
*v	*v	*	*	*	*	*
!!LO:LB:g=original
=33	=33	=33	=33	=33	=33
(4ee 4b-X 4g\	24cccc\LL	.	4.ee\	Do-	.
.	24ggg\	.	.	.	.
.	24eee\	.	.	.	.
.	24ccc\	.	.	.	.
.	24eee\	.	.	.	.
.	24ggg\JJ	.	.	.	.
8c/L	24cccc\LL	.	.	.	.
.	24ggg\	.	.	.	.
.	24eee\	.	.	.	.
8dd/J	24ccc\	.	8dd\	-brem	.
.	24eee\	.	.	.	.
.	24ggg\JJ	.	.	.	.
8eeL 8b- 8g\	24cccc\LL	.	8ee\	się	.
.	24ggg\	.	.	.	.
.	24eee\	.	.	.	.
8dd\J)	24ccc\	.	8dd\	po-	.
.	24eee\	.	.	.	.
.	24ggg\JJ	.	.	.	.
=34	=34	=34	=34	=34	=34
(>8gL 8e/	24cccc\LL	.	8g/	-dzie-	.
.	24ggg\	.	.	.	.
.	24eee\	.	.	.	.
8a/J	24ccc\	.	8a/	-lić	.
.	24eee\	.	.	.	.
.	24ggg\JJ	.	.	.	.
4b- 4c/	24cccc\LL	.	4b-/	sło-	.
.	24ggg\	.	.	.	.
.	24eee\	.	.	.	.
.	24ccc\	.	.	.	.
.	24eee\	.	.	.	.
.	24ggg\JJ	.	.	.	.
4a 4f/)	24cccc\LL	.	4a/	-wem	.
.	24aaa\	.	.	.	.
.	24fff\	.	.	.	.
.	24ccc\	.	.	.	.
.	24fff\	.	.	.	.
.	24aaa\JJ	.	.	.	.
!!LO:PB:g=original
=35	=35	=35	=35	=35	=35
4dd 4b- 4f/	24dddd\LL	.	4.dd\	I	.
.	24bbb-\	.	.	.	.
.	24fff\	.	.	.	.
.	24ddd\	.	.	.	.
.	24fff\	.	.	.	.
.	24bbb-\JJ	.	.	.	.
(8B-/L	24dddd\LL	.	.	.	.
.	24bbb-\	.	.	.	.
.	24fff\	.	.	.	.
8cc/	24ddd\	.	8cc\	u-	.
.	24fff\	.	.	.	.
.	24bbb-\JJ	.	.	.	.
8dd/	24dddd\LL	.	8dd\	-ści-	.
.	24bbb-\	.	.	.	.
.	24fff\	.	.	.	.
8b-/J)	24ddd\	.	8b-,\	-skiem	.
.	24fff\	.	.	.	.
.	24bbb-\JJ	.	.	.	.
=36	=36	=36	=36	=36	=36
*clefF4	*	*	*	*	*
*ped	*	*	*	*	*
4d 4B- 4G\	24dddd\LL	.	(2d/	bra-	.
.	24bbb-\	.	.	.	.
.	24fff\	.	.	.	.
.	24ddd\	.	.	.	.
.	24fff\	.	.	.	.
.	24bbb-\JJ	.	.	.	.
4C/	24dddd\LL	.	.	.	.
.	24bbb-\	.	.	.	.
.	24fff\	.	.	.	.
.	24ddd\	.	.	.	.
.	24fff\	.	.	.	.
.	24bbb-\JJ	.	.	.	.
*Xped	*	*	*	*	*
4e 4B- 4G\	24cccc\LL	.	4e/)	.	.
.	24bbb-\	.	.	.	.
.	24eee\	.	.	.	.
.	24ccc\	.	.	.	.
.	24eee\	.	.	.	.
.	24bbb-\JJ	.	.	.	.
!!LO:LB:g=original
=37	=37	=37	=37	=37	=37
*^	*	*	*	*	*
4f 4A 4F\	4ryy	24cccc\LL	.	[>2.f/	-tnim!	.
.	.	24aaa\	.	.	.	.
.	.	24fff\	.	.	.	.
.	.	24ccc\	.	.	.	.
.	.	24fff\	.	.	.	.
.	.	24aaa\JJ	.	.	.	.
*clefG2	*	*	*	*	*	*
!	!	!	!LO:DY:rj	!	!	!
(4cc/	2a 2f\	24cccc\LL	pp	.	.	.
.	.	24aaa\	.	.	.	.
.	.	24fff\	.	.	.	.
.	.	24ccc\	.	.	.	.
.	.	24fff\	.	.	.	.
.	.	24aaa\JJ	.	.	.	.
4cc#X/	.	24cccc#X\LL	.	.	.	.
.	.	24aaa\	.	.	.	.
.	.	24fff\	.	.	.	.
.	.	24ccc#X\	.	.	.	.
.	.	24fff\	.	.	.	.
.	.	24aaa\JJ	.	.	.	.
*v	*v	*	*	*	*	*
=38	=38	=38	=38	=38	=38
4dd\	24dddd\LL	.	4f/]	.	.
.	24aaa\	.	.	.	.
.	24fff\	.	.	.	.
.	24ddd\	.	.	.	.
.	24fff\	.	.	.	.
.	24aaa\JJ	.	.	.	.
4dd#X\	24dddd#X\LL	.	4r	.	.
.	24cccc\	.	.	.	.
.	24aaa\	.	.	.	.
.	24ddd#X\	.	.	.	.
.	24aaa\	.	.	.	.
.	24cccc\JJ	.	.	.	.
4ee\)	24eeee\LL	.	4r	.	.
.	24cccc\	.	.	.	.
.	24aaa\	.	.	.	.
.	24eee\	.	.	.	.
.	24aaa\	.	.	.	.
.	24cccc\JJ	.	.	.	.
!!LO:LB:g=original
=39	=39	=39	=39	=39	=39
[2.ff: [2.cc: [2.a: [2.f:\	24ffff\LL	.	2.r	.	.
.	24cccc\	.	.	.	.
.	24aaa\	.	.	.	.
.	24fff\	.	.	.	.
.	24aaa\	.	.	.	.
.	24cccc\JJ	.	.	.	.
.	24ffff\LL	.	.	.	.
.	24cccc\	.	.	.	.
.	24aaa\	.	.	.	.
.	24fff\	.	.	.	.
.	24aaa\	.	.	.	.
.	24cccc\JJ	.	.	.	.
.	24ffff\LL	.	.	.	.
.	24cccc\	.	.	.	.
.	24aaa\	.	.	.	.
.	24fff\	.	.	.	.
.	24aaa\	.	.	.	.
.	24cccc\JJ	.	.	.	.
=40	=40	=40	=40	=40	=40
4ff] 4cc] 4a] 4f\]	4ffff\	.	2.r	.	.
4r	4r	.	.	.	.
4r	4r	.	.	.	.
*	*X8va	*	*	*	*
==	==	==	==	==	==
*-	*-	*-	*-	*-	*-
!!!system-decoration: p1{p2}
!!!RDF**kern: > = above
!!!RDF**kern: < = below
!!!ENC: Andrzej Gręziak
!!!END: 2025-03-07
!!!ENC: Marta Lawrence
!!!END: 2025-03-23
